Catalina-light/actions/16/find-location.svg

<svg xmlns="http://www.w3.org/2000/svg" width="16" height="16" viewBox="0 0 16 16">
 <defs>
  <style id="current-color-scheme" type="text/css">
   .ColorScheme-Text { color:#5c616c; } .ColorScheme-Highlight { color:#5294e2; }
  </style>
 </defs>
 <path style="fill:currentColor" class="ColorScheme-Text" d="M 7 1.0976562 L 7 3.0976562 C 5.0471 3.4972863 3.49335 5.0510063 3.09375 7.0039062 L 1 7.0039062 L 1 9.0039062 L 3.09375 9.0039062 C 3.49338 10.956806 5.0471 12.510556 7 12.910156 L 7 15.003906 L 9 15.003906 L 9 12.910156 C 10.9529 12.510526 12.50665 10.956806 12.90625 9.0039062 L 15 9.0039062 L 15 7.0039062 L 12.90625 7.0039062 C 12.50662 5.0510063 10.9529 3.4972562 9 3.0976562 L 9 1.0976562 L 7 1.0976562 z M 8 6.0039062 C 9.1046 6.0039062 10 6.8993362 10 8.0039062 C 10 9.1084763 9.10457 10.003906 8 10.003906 C 6.89543 10.003906 6 9.1084762 6 8.0039062 C 6 6.8993362 6.89543 6.0039062 8 6.0039062 z"/>
</svg>

<svg width="16" height="16" viewBox="0 0 16 16" xmlns="http://www.w3.org/2000/svg">
<defs>
<style id="current-color-scheme" type="text/css">.ColorScheme-Text { color:#5c616c; } .ColorScheme-Highlight { color:#5294e2; }</style>
</defs>
<path class="ColorScheme-Text" d="m7 1.0977v2c-1.9529 0.39963-3.5066 1.9534-3.9062 3.9062h-2.0938v2h2.0938c0.39963 1.9529 1.9534 3.5066 3.9062 3.9062v2.0938h2v-2.0938c1.9529-0.39963 3.5066-1.9534 3.9062-3.9062h2.0938v-2h-2.0938c-0.39963-1.9529-1.9534-3.5066-3.9062-3.9062v-2h-2zm1 4.9062c1.1046 0 2 0.89543 2 2 0 1.1046-0.89543 2-2 2s-2-0.89543-2-2 0.89543-2 2-2z" fill="currentColor"/>
</svg>
